packages/ffe-icons/icons/filled/md/add_comment.svg

<svg xmlns="http://www.w3.org/2000/svg" height="24" viewBox="0 -960 960 960" width="24"><path d="m241.539-260.001-80.076 80.076q-17.077 17.076-39.269 7.67-22.193-9.406-22.193-33.593v-581.843q0-30.308 21-51.308t51.308-21h615.382q30.308 0 51.308 21t21 51.308v455.382q0 30.308-21 51.308t-51.308 21H241.539Zm208.462-270V-440q0 12.75 8.628 21.374 8.629 8.625 21.384 8.625 12.756 0 21.371-8.625 8.615-8.624 8.615-21.374v-90.001H600q12.75 0 21.375-8.628 8.624-8.629 8.624-21.384 0-12.756-8.624-21.371-8.625-8.615-21.375-8.615h-90.001V-680q0-12.75-8.628-21.375-8.629-8.624-21.384-8.624-12.756 0-21.371 8.624-8.615 8.625-8.615 21.375v90.001H360q-12.75 0-21.374 8.628-8.625 8.629-8.625 21.384 0 12.756 8.625 21.371 8.624 8.615 21.374 8.615h90.001Z"/></svg>

<svg xmlns="http://www.w3.org/2000/svg" height="24" viewBox="0 -960 960 960" width="24"><path d="m241.54-260-80.08 80.07q-17.07 17.08-39.27 7.68-22.19-9.41-22.19-33.6v-581.84Q100-818 121-839q21-21 51.31-21h615.38Q818-860 839-839q21 21 21 51.31v455.38Q860-302 839-281q-21 21-51.31 21H241.54ZM450-530v90q0 12.75 8.63 21.37 8.63 8.63 21.38 8.63 12.76 0 21.37-8.63Q510-427.25 510-440v-90h90q12.75 0 21.37-8.63 8.63-8.63 8.63-21.38 0-12.76-8.63-21.37Q612.75-590 600-590h-90v-90q0-12.75-8.63-21.37-8.63-8.63-21.38-8.63-12.76 0-21.37 8.63Q450-692.75 450-680v90h-90q-12.75 0-21.37 8.63-8.63 8.63-8.63 21.38 0 12.76 8.63 21.37Q347.25-530 360-530h90Z"/></svg>
